X:73
T:Show Polka 1 - The Shepherd And Shepherdess
R: polka
M: 2/4
L: 1/8
K: Amaj
"A"c/d/e Aa|"D"f2 fa|"A"e>f ec|"E"B/A/G/A/ Bc|
"A"AE2B/c/|"Bm"dB "E"e/d/c/B/|"D"ce "E"Bc|"A"A2 A>B:|
|:"A"cA "Bm"dB|"A"cA A>B|cA ec|"E"B/A/G/A/ Bc|
"A"AE2B/c/|"Bm"dB e/d/c/B/|"D"ce "E"Bc|1"A"A2 A>B:|2"A"A2 a2||
"F#m"a/g/f/g/ ab|ag fe|"D"c/d/e f/g/a| "E"AG FE|
"D"FD "Bm"dB|"A"cA e/d/c/B/|"D"ce"E"Bc|1"A"A2 a2:|2"A"A2 A2||

